X:17
T:Brumley Brae
R:Reel
M:4/4
Q:180
K:D
|:G2|"D"d2(cd) AFD(ud | cd)vAuF EFAF | "A"vE2 EF GFED |     CEGB =cA^cA |
"D"d2 (cd) AFD(ud | cd)vAuF DFAF    | "A"Begf edcB   | "A7"AGFE "D"D2 :|
(f2 |:\
"D"^ga)vfud vAuaga|fdAa ^gaf(ud | "E"eB)vBue bagf|edcB "A"A^ABc|
"D"d2 (cd) AFD(ud | cd)vAuF DFAF|"G"B,DDB, "A"A,CEG | "D"F2D2D2|]
